images/farm.svg

<svg width="32" height="32" viewBox="0 0 32 32" fill="none" xmlns="http://www.w3.org/2000/svg">
<path d="M12.9535 22.9501C12.9535 26.0044 10.4775 28.4803 7.42326 28.4803C4.36902 28.4803 1.89307 26.0044 1.89307 22.9501C1.89307 19.8959 4.36902 17.4199 7.42326 17.4199C10.4775 17.4199 12.9535 19.8959 12.9535 22.9501Z" stroke="#1AC486" stroke-width="1.5"/>
<circle cx="7.42343" cy="22.9508" r="2.35507" fill="#1AC486"/>
<path d="M23.1233 24.127H16.0581" stroke="#445B74" stroke-width="2"/>
<path fill-rule="evenodd" clip-rule="evenodd" d="M2.97136 7.64185C2.97136 7.07379 3.43186 6.61328 3.99993 6.61328H9.97438H9.97447H9.97461H9.97481H9.97507H9.97538H9.97575H9.97618H9.97666H9.9772H9.9778H9.97845H9.97916H9.97992H9.98074H9.98161H9.98254H9.98352H9.98456H9.98565H9.9868H9.988H9.98925H9.99056H9.99192H9.99334H9.99481H9.99633H9.99791H9.99954H10.0012H10.003H10.0047H10.0066H10.0085H10.0104H10.0124H10.0145H10.0166H10.0187H10.0209H10.0232H10.0255H10.0278H10.0302H10.0327H10.0352H10.0378H10.0404H10.043H10.0457H10.0485H10.0513H10.0542H10.0571H10.06H10.063H10.0661H10.0692H10.0723H10.0755H10.0788H10.0821H10.0854H10.0888H10.0923H10.0957H10.0993H10.1029H10.1065H10.1102H10.1139H10.1176H10.1215H10.1253H10.1292H10.1332H10.1372H10.1412H10.1453H10.1494H10.1536H10.1578H10.1621H10.1664H10.1708H10.1752H10.1796H10.1841H10.1887H10.1932H10.1979H10.2025H10.2072H10.212H10.2168H10.2216H10.2265H10.2314H10.2364H10.2414H10.2464H10.2515H10.2567H10.2618H10.267H10.2723H10.2776H10.2829H10.2883H10.2937H10.2992H10.3047H10.3103H10.3158H10.3215H10.3271H10.3328H10.3386H10.3443H10.3502H10.356H10.3619H10.3679H10.3738H10.3798H10.3859H10.392H10.3981H10.4043H10.4105H10.4167H10.423H10.4293H10.4357H10.4421H10.4485H10.4549H10.4614H10.468H10.4745H10.4812H10.4878H10.4945H10.5012H10.5079H10.5147H10.5215H10.5284H10.5353H10.5422H10.5492H10.5562H10.5632H10.5703H10.5773H10.5845H10.5916H10.5988H10.6061H10.6133H10.6206H10.6279H10.6353H10.6427H10.6501H10.6576H10.6651H10.6726H10.6801H10.6877H10.6953H10.703H10.7107H10.7184H10.7261H10.7339H10.7417H10.7495H10.7574H10.7653H10.7732H10.7811H10.7891H10.7971H10.8052H10.8132H10.8213H10.8295H10.8376H10.8458H10.854H10.8622H10.8705H10.8788H10.8871H10.8955H10.9039H10.9123H10.9207H10.9292H10.9376H10.9462H10.9547H10.9633H10.9719H10.9805H10.9891H10.9978H11.0065H11.0152H11.0239H11.0327H11.0415H11.0503H11.0592H11.068H11.0769H11.0859H11.0948H11.1038H11.1128H11.1218H11.1308H11.1399H11.149H11.1581H11.1672H11.1763H11.1855H11.1947H11.2039H11.2132H11.2224H11.2317H11.241H11.2504H11.2597H11.2691H11.2785H11.2879H11.2973H11.3068H11.3163H11.3257H11.3353H11.3448H11.3544H11.3639H11.3735H11.3831H11.3928H11.4024H11.4121H11.4218H11.4315H11.4412H11.451H11.4607H11.4705H11.4803H11.4901H11.4999H11.5098H11.5197H11.5295H11.5394H11.5494H11.5593H11.5693H11.5792H11.5892H11.5992H11.6092H11.6192H11.6293H11.6394H11.6494H11.6595H11.6696H11.6798H11.6899H11.7H11.7102H11.7204H11.7306H11.7408H11.751H11.7612H11.7715H11.7818H11.792H11.8023H11.8126H11.8229H11.8333H11.8436H11.8539H11.8643H11.8747H11.8851H11.8955H11.9059H11.9163H11.9267H11.9372H11.9476H11.9581H11.9685H11.979H11.9895H12H12.0105H12.0211H12.0316H12.0421H12.0527H12.0633H12.0738H12.0844H12.095H12.1056H12.1162H12.1268H12.1374H12.1481H12.1587H12.1693H12.18H12.1906H12.2013H12.212H12.2227H12.2333H12.244H12.2547H12.2654H12.2761H12.2869H12.2976H12.3083H12.3191H12.3298H12.3405H12.3513H12.362H12.3728H12.3836H12.3943H12.4051H12.4159H12.4267H12.4374H12.4482H12.459H12.4698H12.4806H12.4914H12.5022H12.513H12.5238H12.5346H12.5454H12.5563H12.5671H12.5779H12.5887H12.5995H12.6104H12.6212H12.632H12.6428H12.6537H12.6645H12.6753H12.6861H12.697H12.7078H12.7186H12.7295H12.7403H12.7511H12.7619H12.7728H12.7836H12.7944H12.8052H12.816H12.8269H12.8377H12.8485H12.8593H12.8701H12.8809H12.8917H12.9025H12.9133H12.9241H12.9349H12.9457H12.9565H12.9673H12.978H12.9888H12.9996H13.0103H13.0211H13.0319H13.0426H13.0534H13.0641H13.0748H13.0856H13.0963H13.107H13.1177H13.1284H13.1391H13.1498H13.1605H13.1712H13.1819H13.1925H13.2032H13.2139H13.2245H13.2351H13.2458H13.2564H13.267H13.2776H13.2882H13.2988H13.3094H13.32H13.3305H13.3411H13.3516H13.3622H13.3727H13.3832H13.3937H13.4042H13.4147H13.4252H13.4356H13.4461H13.4565H13.467H13.4774H13.4878H13.4982H13.5086H13.519H13.5293H13.5397H13.55H13.5604H13.5707H13.581H13.5913H13.6016H13.6118H13.6221H13.6323H13.6425H13.6528H13.663H13.6731H13.6833H13.6935H13.7036H13.7137H13.7239H13.7339H13.744H13.7541H13.7642H13.7742H13.7842H13.7942H13.8042H13.8142H13.8241H13.8341H13.844H13.8539H13.8638H13.8737H13.8835H13.8934H13.9032H13.913H13.9228H13.9326H13.9423H13.952H13.9617H13.9714H13.9811H13.9908H14.0004H14.01H14.0196H14.0292H14.0388H14.0483H14.0578H14.0673H14.0768H14.0863H14.0957H14.1011H14.1065H14.1119H14.1174H14.1228H14.1282H14.1337H14.1392H14.1447H14.1501H14.1556H14.1612H14.1667H14.1722H14.1778H14.1833H14.1889H14.1945H14.2H14.2056H14.2113H14.2169H14.2225H14.2281H14.2338H14.2394H14.2451H14.2508H14.2565H14.2622H14.2679H14.2736H14.2793H14.285H14.2908H14.2965H14.3023H14.308H14.3138H14.3196H14.3254H14.3312H14.337H14.3428H14.3486H14.3544H14.3603H14.3661H14.372H14.3778H14.3837H14.3896H14.3955H14.4013H14.4072H14.4131H14.4191H14.425H14.4309H14.4368H14.4428H14.4487H14.4547H14.4606H14.4666H14.4726H14.4785H14.4845H14.4905H14.4965H14.5025H14.5085H14.5145H14.5205H14.5265H14.5326H14.5386H14.5446H14.5507H14.5567H14.5628H14.5688H14.5749H14.5809H14.587H14.5931H14.5992H14.6052H14.6113H14.6174H14.6235H14.6296H14.6357H14.6418H14.6479H14.654H14.6602H14.6663H14.6724H14.6785H14.6846H14.6908H14.6969H14.7031H14.7092H14.7153H14.7215H14.7276H14.7338H14.7399H14.7461H14.7522H14.7584H14.7646H14.7707H14.7769H14.783H14.7892H14.7954H14.8016H14.8077H14.8139H14.8201H14.8263H14.8324H14.8386H14.8448H14.851H14.8571H14.8633H14.8695H14.8757H14.8819H14.888H14.8942H14.9004H14.9066H14.9128H14.9189H14.9251H14.9313H14.9375H14.9437H14.9498H14.956H14.9622H14.9684H14.9746H14.9807H14.9869H14.9931H14.9992H15.0054H15.0116H15.0177H15.0239H15.0301H15.0362H15.0424H15.0485H15.0547H15.0608H15.067H15.0731H15.0793H15.0854H15.0916H15.0977H15.1038H15.11H15.1161H15.1222H15.1283H15.1345H15.1406H15.1467H15.1528H15.1589H15.165H15.1711H15.1772H15.1833H15.1894H15.1954H15.2015H15.2076H15.2136H15.2197H15.2258H15.2318H15.2379H15.2439H15.25H15.256H15.262H15.268H15.2741H15.2801H15.2861H15.2921H15.2981H15.3041H15.3101H15.316H15.322H15.328H15.3339H15.3399H15.3458H15.3518H15.3577H15.3636H15.3696H15.3755H15.3814H15.3873H15.3932H15.3991H15.4049H15.4108H15.4167H15.4225H15.4284H15.4342H15.4401H15.4459H15.4517H15.4575H15.4633H15.4691H15.4749H15.4807H15.4865H15.4922H15.498H15.5037H15.5095H15.5152H15.5209H15.5266H15.5323H15.538H15.5437H15.5493H15.555H15.5607H15.5663H15.5719H15.5776H15.5832H15.5888H15.5944H15.6H15.6055H15.6111H15.6166H15.6222H15.6277H15.6332H15.6387H15.6442H15.6497H15.6552H15.6607H15.6661H15.6716H15.677H15.6824H15.6878H15.6932H15.6986H15.704H15.7093H15.7147H15.72H15.7254H15.7307H15.736H15.7413H15.7465H15.7518H15.757H15.7623H15.7675H15.7727H15.7779H15.7831H15.7883H15.7934H15.7986H15.8037H15.8088H15.8139H15.819H15.8241H15.8292H15.8342H15.8393H15.8443H15.8493H15.8543H15.8593H15.8642H15.8692H15.8741H15.879H15.8839H15.8888H15.8937H15.8986H15.9034H15.9082H15.913H15.9178H15.9226H15.9274H15.9321H15.9369H15.9416H15.9463H15.951H15.9557H15.9603H15.965H15.9696H15.9742H15.9788H15.9833H15.9879H15.9924H15.997H16.0015H16.0059H16.0104H16.0149H16.0193H16.0237H16.0281H16.0325H16.0369H16.0412H16.0455H16.0499H16.0542H16.0584H16.0627H16.0669H16.0711H16.0753H16.0795H16.0837H16.0878H16.092H16.0961H16.1002H16.1042H16.1083H16.1123H16.1163H16.1203H16.1243H16.1282H16.1322H16.1361H16.14H16.1439H16.1477H16.1515H16.1553H16.1591H16.1629H16.1667H16.1704H16.1741H16.1778H16.1815H16.1851H16.1887H16.1923H16.1959H16.1995H16.203H16.2065H16.21H16.2135H16.217H16.2204H16.2238H16.2272H16.2306H16.2339H16.2372H16.2405H16.2438H16.2471H16.2503H16.2535H16.2567H16.2599H16.263H16.2661H16.2692H16.2723H16.2753H16.2784H16.2814H16.2843H16.2873H16.2902H16.2931H16.296H16.2989H16.3017H16.3045H16.3073H16.3101H16.3128H16.3155H16.3182H16.3209H16.3235H16.3261H16.3287H16.3313H16.3338H16.3363H16.3388H16.3413H16.3437H16.3461H16.3485H16.3509H16.3532H16.3555H16.3578H16.36H16.3623H16.3645H16.3667H16.3688H16.3709H16.373H16.3751H16.3771H16.3792H16.3811H16.3831H16.385H16.387H16.3888H16.3907H16.3925H16.3943H16.3961H16.3978H16.3995H16.4012H16.4029H16.4045H16.4061H16.4077H16.4092H16.4108H16.4123H16.4137H16.4151H16.4165H16.4179H16.4193H16.4206H16.4219H16.4231H16.4244H16.4256H16.4267H16.4279H16.429H16.4301H16.4311H16.4321H16.4331H16.4341H16.435H16.4359H16.4368H16.4376H16.4384H16.4392H16.4399H16.4407H16.4414H16.442H16.4426H16.4432H16.4438H16.4443H16.4448H16.4453H16.4457H16.4461H16.4465H16.4468H16.4471H16.4474H16.4477H16.4479H16.448H16.4482H16.4483H16.4484H16.4485C17.0165 6.61328 17.477 7.07379 17.477 7.64185C17.477 8.20992 17.0165 8.67042 16.4484 8.67042H16.4483H16.4482H16.448H16.4479H16.4477H16.4474H16.4471H16.4468H16.4465H16.4461H16.4457H16.4453H16.4448H16.4443H16.4438H16.4432H16.4426H16.442H16.4414H16.4407H16.4399H16.4392H16.4384H16.4376H16.4368H16.4359H16.435H16.4341H16.4331H16.4321H16.4311H16.4301H16.429H16.4279H16.4267H16.4256H16.4244H16.4231H16.4219H16.4206H16.4193H16.4179H16.4165H16.4151H16.4137H16.4123H16.4108H16.4092H16.4077H16.4061H16.4045H16.4029H16.4012H16.3995H16.3978H16.3961H16.3943H16.3925H16.3907H16.3888H16.387H16.385H16.3831H16.3811H16.3792H16.3771H16.3751H16.373H16.3709H16.3688H16.3667H16.3645H16.3623H16.36H16.3578H16.3555H16.3532H16.3509H16.3485H16.3461H16.3437H16.3413H16.3388H16.3363H16.3338H16.3313H16.3287H16.3261H16.3235H16.3209H16.3182H16.3155H16.3128H16.3101H16.3073H16.3045H16.3017H16.2989H16.296H16.2931H16.2902H16.2873H16.2843H16.2814H16.2784H16.2753H16.2723H16.2692H16.2661H16.263H16.2599H16.2567H16.2535H16.2503H16.2471H16.2438H16.2405H16.2372H16.2339H16.2306H16.2272H16.2238H16.2204H16.217H16.2135H16.21H16.2065H16.203H16.1995H16.1959H16.1923H16.1887H16.1851H16.1815H16.1778H16.1741H16.1704H16.1667H16.1629H16.1591H16.1553H16.1515H16.1477H16.1439H16.14H16.1361H16.1322H16.1282H16.1243H16.1203H16.1163H16.1123H16.1083H16.1042H16.1002H16.0961H16.092H16.0878H16.0837H16.0795H16.0753H16.0711H16.0669H16.0627H16.0584H16.0542H16.0499H16.0455H16.0412H16.0369H16.0325H16.0281H16.0237H16.0193H16.0149H16.0104H16.0059H16.0015H15.997H15.9924H15.9879H15.9833H15.9788H15.9742H15.9696H15.965H15.9603H15.9557H15.951H15.9463H15.9416H15.9369H15.9321H15.9274H15.9226H15.9178H15.913H15.9082H15.9034H15.8986H15.8937H15.8888H15.8839H15.879H15.8741H15.8692H15.8642H15.8593H15.8543H15.8493H15.8443H15.8393H15.8342H15.8292H15.8241H15.819H15.8139H15.8088H15.8037H15.7986H15.7934H15.7883H15.7831H15.7779H15.7727H15.7675H15.7623H15.757H15.7518H15.7465H15.7413H15.736H15.7307H15.7254H15.72H15.7147H15.7093H15.704H15.6986H15.6932H15.6878H15.6824H15.677H15.6716H15.6661H15.6607H15.6552H15.6497H15.6442H15.6387H15.6332H15.6277H15.6222H15.6166H15.6111H15.6055H15.6H15.5944H15.5888H15.5832H15.5776H15.5719H15.5708L16.8371 12.1073L17.5301 13.9883L17.6048 14.1913L26.5259 15.7924C28.1053 16.0758 29.2547 17.45 29.2547 19.0546V21.7723H27.1976V19.0546C27.1976 18.4459 26.7616 17.9247 26.1625 17.8172L16.7517 16.1282H16.749H16.7452H16.7413H16.7374H16.7334H16.7293H16.7251H16.7209H16.7166H16.7123H16.7078H16.7033H16.6988H16.6941H16.6894H16.6846H16.6798H16.6749H16.6699H16.6649H16.6597H16.6546H16.6493H16.644H16.6386H16.6332H16.6277H16.6221H16.6164H16.6107H16.6049H16.5991H16.5932H16.5872H16.5812H16.5751H16.5689H16.5627H16.5564H16.5501H16.5437H16.5372H16.5306H16.524H16.5174H16.5106H16.5039H16.497H16.4901H16.4831H16.4761H16.469H16.4618H16.4546H16.4474H16.44H16.4326H16.4252H16.4177H16.4101H16.4025H16.3948H16.387H16.3792H16.3714H16.3635H16.3555H16.3475H16.3394H16.3312H16.323H16.3148H16.3065H16.2981H16.2897H16.2812H16.2726H16.264H16.2554H16.2467H16.238H16.2291H16.2203H16.2114H16.2024H16.1934H16.1843H16.1752H16.166H16.1568H16.1475H16.1381H16.1288H16.1193H16.1098H16.1003H16.0907H16.0811H16.0714H16.0616H16.0518H16.042H16.0321H16.0222H16.0122H16.0021H15.992H15.9819H15.9717H15.9615H15.9512H15.9409H15.9305H15.9201H15.9096H15.8991H15.8885H15.8779H15.8673H15.8566H15.8458H15.8351H15.8242H15.8133H15.8024H15.7914H15.7804H15.7694H15.7583H15.7471H15.7359H15.7247H15.7134H15.7021H15.6908H15.6794H15.6679H15.6564H15.6449H15.6334H15.6217H15.6101H15.5984H15.5867H15.5749H15.5631H15.5512H15.5394H15.5274H15.5155H15.5034H15.4914H15.4793H15.4672H15.455H15.4428H15.4306H15.4183H15.406H15.3937H15.3813H15.3689H15.3564H15.3439H15.3314H15.3188H15.3062H15.2936H15.2809H15.2682H15.2555H15.2427H15.2299H15.217H15.2041H15.1912H15.1783H15.1653H15.1523H15.1393H15.1262H15.1131H15.0999H15.0868H15.0736H15.0603H15.0471H15.0338H15.0204H15.0071H14.9937H14.9803H14.9668H14.9534H14.9399H14.9263H14.9128H14.8992H14.8855H14.8719H14.8582H14.8445H14.8308H14.817H14.8032H14.7894H14.7756H14.764C15.8501 17.2536 16.6456 18.6389 17.0664 20.1643C17.4488 21.5502 17.5064 22.9954 17.2472 24.3904C17.1774 24.7663 17.0846 25.1387 16.9689 25.5052C16.9503 25.5641 16.9311 25.6229 16.9113 25.6815C16.7618 26.1244 16.2582 26.3174 15.8304 26.1288C15.4498 25.961 15.2582 25.5476 15.3197 25.1444C15.3273 25.0945 15.3388 25.0447 15.3544 24.9956C15.4541 24.6795 15.5332 24.3582 15.5914 24.0337C15.7939 22.9041 15.7437 21.7357 15.4344 20.6146C14.9608 18.8982 13.9091 17.3981 12.4571 16.3677C11.005 15.3374 9.24167 14.8401 7.46524 14.96C6.3049 15.0383 5.18548 15.3767 4.18615 15.941C3.89906 16.103 3.62187 16.2838 3.35648 16.4823C3.31522 16.5132 3.27204 16.5405 3.22743 16.5642C2.8672 16.7554 2.41371 16.7111 2.12959 16.4072C1.81028 16.0657 1.82614 15.5266 2.19489 15.2392C2.24368 15.2012 2.29281 15.1637 2.34228 15.1267C2.65003 14.8965 2.97079 14.6859 3.30259 14.4958C3.43472 14.4201 3.5686 14.3477 3.7041 14.2785L4.42208 9.97069L4.63879 8.67042H3.99993C3.43186 8.67042 2.97136 8.20992 2.97136 7.64185ZM5.92305 13.4779C6.39074 13.373 6.86809 13.3034 7.35127 13.2708C8.89743 13.1665 10.4354 13.4457 11.833 14.071H11.839H11.8539H11.8688H11.8837H11.8986H11.9136H11.9285H11.9435H11.9585H11.9735H11.9886H12.0036H12.0187H12.0337H12.0488H12.0639H12.079H12.0941H12.1092H12.1244H12.1395H12.1547H12.1699H12.1851H12.2003H12.2155H12.2307H12.2459H12.2612H12.2764H12.2917H12.3069H12.3222H12.3375H12.3528H12.3681H12.3834H12.3987H12.4141H12.4294H12.4447H12.4601H12.4754H12.4908H12.5062H12.5216H12.5369H12.5523H12.5677H12.5831H12.5985H12.614H12.6294H12.6448H12.6602H12.6756H12.6911H12.7065H12.722H12.7374H12.7529H12.7683H12.7838H12.7992H12.8147H12.8301H12.8456H12.8611H12.8765H12.892H12.9075H12.9229H12.9384H12.9539H12.9693H12.9848H13.0003H13.0157H13.0312H13.0467H13.0621H13.0776H13.0931H13.1085H13.124H13.1394H13.1549H13.1703H13.1858H13.2012H13.2167H13.2321H13.2475H13.263H13.2784H13.2938H13.3092H13.3246H13.34H13.3554H13.3708H13.3862H13.4016H13.417H13.4323H13.4477H13.4631H13.4784H13.4938H13.5091H13.5244H13.5397H13.555H13.5703H13.5856H13.6009H13.6162H13.6315H13.6467H13.662H13.6772H13.6924H13.7076H13.7228H13.738H13.7532H13.7684H13.7836H13.7987H13.8138H13.829H13.8441H13.8592H13.8743H13.8893H13.9044H13.9194H13.9345H13.9495H13.9645H13.9795H13.9945H14.0094H14.0244H14.0393H14.0542H14.0691H14.084H14.0989H14.1137H14.1286H14.1434H14.1582H14.173H14.1877H14.2025H14.2172H14.2319H14.2466H14.2613H14.276H14.2906H14.3052H14.3198H14.3344H14.349H14.3635H14.378H14.3925H14.407H14.4215H14.4359H14.4503H14.4647H14.4791H14.4935H14.5078H14.5221H14.5364H14.5507H14.5649H14.5791H14.5933H14.6075H14.6216H14.6357H14.6498H14.6639H14.678H14.692H14.706H14.7199H14.7339H14.7478H14.7617H14.7756H14.7894H14.8032H14.817H14.8308H14.8445H14.8582H14.8719H14.8855H14.8992H14.9128H14.9263H14.9399H14.9534H14.9668H14.9803H14.9937H15.0071H15.0204H15.0338H15.0471H15.0603H15.0736H15.0868H15.0999H15.1131H15.1262H15.1393H15.1523H15.1653H15.1783H15.1912H15.2041H15.217H15.2299H15.2427H15.2555H15.2682H15.2809H15.2936H15.3062H15.3188H15.3314H15.3439H15.3564H15.3682L14.9067 12.8185L13.3785 8.67042H13.3727H13.3622H13.3516H13.3411H13.3305H13.32H13.3094H13.2988H13.2882H13.2776H13.267H13.2564H13.2458H13.2351H13.2245H13.2139H13.2032H13.1925H13.1819H13.1712H13.1605H13.1498H13.1391H13.1284H13.1177H13.107H13.0963H13.0856H13.0748H13.0641H13.0534H13.0426H13.0319H13.0211H13.0103H12.9996H12.9888H12.978H12.9673H12.9565H12.9457H12.9349H12.9241H12.9133H12.9025H12.8917H12.8809H12.8701H12.8593H12.8485H12.8377H12.8269H12.816H12.8052H12.7944H12.7836H12.7728H12.7619H12.7511H12.7403H12.7295H12.7186H12.7078H12.697H12.6861H12.6753H12.6645H12.6537H12.6428H12.632H12.6212H12.6104H12.5995H12.5887H12.5779H12.5671H12.5563H12.5454H12.5346H12.5238H12.513H12.5022H12.4914H12.4806H12.4698H12.459H12.4482H12.4374H12.4267H12.4159H12.4051H12.3943H12.3836H12.3728H12.362H12.3513H12.3405H12.3298H12.3191H12.3083H12.2976H12.2869H12.2761H12.2654H12.2547H12.244H12.2333H12.2227H12.212H12.2013H12.1906H12.18H12.1693H12.1587H12.1481H12.1374H12.1268H12.1162H12.1056H12.095H12.0844H12.0738H12.0633H12.0527H12.0421H12.0316H12.0211H12.0105H12H11.9895H11.979H11.9685H11.9581H11.9476H11.9372H11.9267H11.9163H11.9059H11.8955H11.8851H11.8747H11.8643H11.8539H11.8436H11.8333H11.8229H11.8126H11.8023H11.792H11.7818H11.7715H11.7612H11.751H11.7408H11.7306H11.7204H11.7102H11.7H11.6899H11.6798H11.6696H11.6595H11.6494H11.6394H11.6293H11.6192H11.6092H11.5992H11.5892H11.5792H11.5693H11.5593H11.5494H11.5394H11.5295H11.5197H11.5098H11.4999H11.4901H11.4803H11.4705H11.4607H11.451H11.4412H11.4315H11.4218H11.4121H11.4024H11.3928H11.3831H11.3735H11.3639H11.3544H11.3448H11.3353H11.3257H11.3163H11.3068H11.2973H11.2879H11.2785H11.2691H11.2597H11.2504H11.241H11.2317H11.2224H11.2132H11.2039H11.1947H11.1855H11.1763H11.1672H11.1581H11.149H11.1399H11.1308H11.1218H11.1128H11.1038H11.0948H11.0859H11.0769H11.068H11.0592H11.0503H11.0415H11.0327H11.0239H11.0152H11.0065H10.9978H10.9891H10.9805H10.9719H10.9633H10.9547H10.9462H10.9376H10.9292H10.9207H10.9123H10.9039H10.8955H10.8871H10.8788H10.8705H10.8622H10.854H10.8458H10.8376H10.8295H10.8213H10.8132H10.8052H10.7971H10.7891H10.7811H10.7732H10.7653H10.7574H10.7495H10.7417H10.7339H10.7261H10.7184H10.7107H10.703H10.6953H10.6877H10.6801H10.6726H10.6651H10.6576H10.6501H10.6427H10.6353H10.6279H10.6206H10.6133H10.6061H10.5988H10.5916H10.5845H10.5773H10.5703H10.5632H10.5562H10.5492H10.5422H10.5353H10.5284H10.5215H10.5147H10.5079H10.5012H10.4945H10.4878H10.4812H10.4745H10.468H10.4614H10.4549H10.4485H10.4421H10.4357H10.4293H10.423H10.4167H10.4105H10.4043H10.3981H10.392H10.3859H10.3798H10.3738H10.3679H10.3619H10.356H10.3502H10.3443H10.3386H10.3328H10.3271H10.3215H10.3158H10.3103H10.3047H10.2992H10.2937H10.2883H10.2829H10.2776H10.2723H10.267H10.2618H10.2567H10.2515H10.2464H10.2414H10.2364H10.2314H10.2265H10.2216H10.2168H10.212H10.2072H10.2025H10.1979H10.1932H10.1887H10.1841H10.1796H10.1752H10.1708H10.1664H10.1621H10.1578H10.1536H10.1494H10.1453H10.1412H10.1372H10.1332H10.1292H10.1253H10.1215H10.1176H10.1139H10.1102H10.1065H10.1029H10.0993H10.0957H10.0923H10.0888H10.0854H10.0821H10.0788H10.0755H10.0723H10.0692H10.0661H10.063H10.06H10.0571H10.0542H10.0513H10.0485H10.0457H10.043H10.0404H10.0378H10.0352H10.0327H10.0302H10.0278H10.0255H10.0232H10.0209H10.0187H10.0166H10.0145H10.0124H10.0104H10.0085H10.0066H10.0047H10.003H10.0012H9.99954H9.99791H9.99633H9.99481H9.99334H9.99192H9.99056H9.98925H9.988H9.9868H9.98565H9.98456H9.98352H9.98254H9.98161H9.98074H9.97992H9.97916H9.97845H9.9778H9.9772H9.97666H9.97618H9.97575H9.97538H9.97507H9.97481H9.97461H9.97447H9.97438H9.97435H6.72431L6.45123 10.3089L5.92305 13.4779Z" fill="#445B74"/>
<path d="M30.0746 24.9133C30.0746 26.8009 28.5445 28.331 26.657 28.331C24.7695 28.331 23.2394 26.8009 23.2394 24.9133C23.2394 23.0258 24.7695 21.4957 26.657 21.4957C28.5445 21.4957 30.0746 23.0258 30.0746 24.9133Z" stroke="#445B74" stroke-width="1.8"/>
</svg>

<svg xmlns="http://www.w3.org/2000/svg" width="29.831" height="22.618" viewBox="0 0 29.831 22.618">
  <g id="farm" transform="translate(-1.144 -6.613)">
    <path id="Path_2249" data-name="Path 2249" d="M12.953,22.95a5.53,5.53,0,1,1-5.53-5.53A5.53,5.53,0,0,1,12.953,22.95Z" fill="rgba(255,0,0,0)" stroke="#cf5ac3" stroke-width="1.5"/>
    <circle id="Ellipse_92" data-name="Ellipse 92" cx="2.355" cy="2.355" r="2.355" transform="translate(5.068 20.596)" fill="rgba(255,0,0,0)" stroke="#cd58c1" stroke-width="1"/>
    <path id="Path_2250" data-name="Path 2250" d="M23.123,24.127H16.058" fill="none" stroke="#445b74" stroke-width="2"/>
    <path id="Path_2251" data-name="Path 2251" d="M2.971,7.642A1.029,1.029,0,0,1,4,6.613H16.448a1.029,1.029,0,0,1,0,2.057h-.878l1.266,3.437.693,1.881.075.2,8.921,1.6a3.314,3.314,0,0,1,2.729,3.262v2.718H27.2V19.055a1.257,1.257,0,0,0-1.035-1.237l-9.411-1.689H14.764a9.421,9.421,0,0,1,2.2,9.377q-.028.088-.058.176a.79.79,0,0,1-1.081.447.912.912,0,0,1-.511-.984A.978.978,0,0,1,15.354,25a7.728,7.728,0,0,0-12-8.513.99.99,0,0,1-.129.082.912.912,0,0,1-1.1-.157.79.79,0,0,1,.065-1.168l.147-.112A9.428,9.428,0,0,1,3.3,14.5q.2-.114.4-.217l.718-4.308.217-1.3H4A1.029,1.029,0,0,1,2.971,7.642Zm2.952,5.836a9.421,9.421,0,0,1,5.91.593h3.535l-.462-1.253L13.378,8.67H6.724l-.273,1.638Z" fill="#445b74" fill-rule="evenodd"/>
    <path id="Path_2252" data-name="Path 2252" d="M30.075,24.913A3.418,3.418,0,1,1,26.657,21.5,3.418,3.418,0,0,1,30.075,24.913Z" fill="none" stroke="#445b74" stroke-width="1.8"/>
  </g>
</svg>
